images/50858959.svg

<?xml version="1.0" encoding="UTF-8"?>
<svg xmlns="http://www.w3.org/2000/svg" xmlns:xlink="http://www.w3.org/1999/xlink" width="300pt" height="300pt" viewBox="0 0 300 300" version="1.1">
<defs>
<g>
<symbol overflow="visible" id="glyph0-0">
<path style="stroke:none;" d="M 0.59375 2.125 L 0.59375 -8.46875 L 6.59375 -8.46875 L 6.59375 2.125 Z M 1.265625 1.453125 L 5.9375 1.453125 L 5.9375 -7.78125 L 1.265625 -7.78125 Z M 1.265625 1.453125 "/>
</symbol>
<symbol overflow="visible" id="glyph0-1">
<path style="stroke:none;" d="M 2.359375 -4.171875 L 2.359375 -0.96875 L 4.265625 -0.96875 C 4.898438 -0.96875 5.367188 -1.097656 5.671875 -1.359375 C 5.984375 -1.628906 6.140625 -2.035156 6.140625 -2.578125 C 6.140625 -3.128906 5.984375 -3.53125 5.671875 -3.78125 C 5.367188 -4.039062 4.898438 -4.171875 4.265625 -4.171875 Z M 2.359375 -7.78125 L 2.359375 -5.140625 L 4.109375 -5.140625 C 4.691406 -5.140625 5.125 -5.25 5.40625 -5.46875 C 5.6875 -5.6875 5.828125 -6.015625 5.828125 -6.453125 C 5.828125 -6.898438 5.6875 -7.234375 5.40625 -7.453125 C 5.125 -7.671875 4.691406 -7.78125 4.109375 -7.78125 Z M 1.171875 -8.75 L 4.203125 -8.75 C 5.109375 -8.75 5.800781 -8.5625 6.28125 -8.1875 C 6.769531 -7.8125 7.015625 -7.28125 7.015625 -6.59375 C 7.015625 -6.050781 6.890625 -5.617188 6.640625 -5.296875 C 6.390625 -4.984375 6.023438 -4.789062 5.546875 -4.71875 C 6.128906 -4.59375 6.582031 -4.332031 6.90625 -3.9375 C 7.226562 -3.539062 7.390625 -3.046875 7.390625 -2.453125 C 7.390625 -1.671875 7.125 -1.066406 6.59375 -0.640625 C 6.0625 -0.210938 5.300781 0 4.3125 0 L 1.171875 0 Z M 1.171875 -8.75 "/>
</symbol>
<symbol overflow="visible" id="glyph0-2">
<path style="stroke:none;" d="M 4.9375 -5.5625 C 4.8125 -5.625 4.675781 -5.671875 4.53125 -5.703125 C 4.394531 -5.742188 4.238281 -5.765625 4.0625 -5.765625 C 3.457031 -5.765625 2.988281 -5.566406 2.65625 -5.171875 C 2.332031 -4.773438 2.171875 -4.203125 2.171875 -3.453125 L 2.171875 0 L 1.09375 0 L 1.09375 -6.5625 L 2.171875 -6.5625 L 2.171875 -5.546875 C 2.398438 -5.941406 2.695312 -6.234375 3.0625 -6.421875 C 3.425781 -6.617188 3.867188 -6.71875 4.390625 -6.71875 C 4.460938 -6.71875 4.539062 -6.710938 4.625 -6.703125 C 4.71875 -6.691406 4.816406 -6.675781 4.921875 -6.65625 Z M 4.9375 -5.5625 "/>
</symbol>
<symbol overflow="visible" id="glyph0-3">
<path style="stroke:none;" d="M 4.734375 -7.953125 C 3.867188 -7.953125 3.179688 -7.628906 2.671875 -6.984375 C 2.171875 -6.347656 1.921875 -5.472656 1.921875 -4.359375 C 1.921875 -3.265625 2.171875 -2.394531 2.671875 -1.75 C 3.179688 -1.113281 3.867188 -0.796875 4.734375 -0.796875 C 5.585938 -0.796875 6.265625 -1.113281 6.765625 -1.75 C 7.273438 -2.394531 7.53125 -3.265625 7.53125 -4.359375 C 7.53125 -5.472656 7.273438 -6.347656 6.765625 -6.984375 C 6.265625 -7.628906 5.585938 -7.953125 4.734375 -7.953125 Z M 4.734375 -8.90625 C 5.953125 -8.90625 6.925781 -8.492188 7.65625 -7.671875 C 8.394531 -6.847656 8.765625 -5.742188 8.765625 -4.359375 C 8.765625 -2.984375 8.394531 -1.882812 7.65625 -1.0625 C 6.925781 -0.238281 5.953125 0.171875 4.734375 0.171875 C 3.503906 0.171875 2.519531 -0.238281 1.78125 -1.0625 C 1.039062 -1.882812 0.671875 -2.984375 0.671875 -4.359375 C 0.671875 -5.742188 1.039062 -6.847656 1.78125 -7.671875 C 2.519531 -8.492188 3.503906 -8.90625 4.734375 -8.90625 Z M 4.734375 -8.90625 "/>
</symbol>
<symbol overflow="visible" id="glyph0-4">
<path style="stroke:none;" d="M 1.171875 -8.75 L 2.765625 -8.75 L 6.65625 -1.4375 L 6.65625 -8.75 L 7.796875 -8.75 L 7.796875 0 L 6.203125 0 L 2.328125 -7.3125 L 2.328125 0 L 1.171875 0 Z M 1.171875 -8.75 "/>
</symbol>
<symbol overflow="visible" id="glyph0-5">
<path style="stroke:none;" d="M 1.171875 -8.75 L 2.359375 -8.75 L 2.359375 -5.15625 L 6.65625 -5.15625 L 6.65625 -8.75 L 7.84375 -8.75 L 7.84375 0 L 6.65625 0 L 6.65625 -4.171875 L 2.359375 -4.171875 L 2.359375 0 L 1.171875 0 Z M 1.171875 -8.75 "/>
</symbol>
</g>
</defs>
<g id="surface23125">
<rect x="0" y="0" width="300" height="300" style="fill:rgb(100%,100%,100%);fill-opacity:1;stroke:none;"/>
<path style="fill:none;stroke-width:1.2;stroke-linecap:butt;stroke-linejoin:miter;stroke:rgb(50%,30%,10%);stroke-opacity:1;stroke-miterlimit:10;" d="M 71.519531 225.984375 L 83.277344 217.722656 "/>
<path style="fill:none;stroke-width:1.2;stroke-linecap:butt;stroke-linejoin:miter;stroke:rgb(0%,0%,0%);stroke-opacity:1;stroke-miterlimit:10;" d="M 83.277344 217.722656 L 95.035156 209.460938 "/>
<path style=" stroke:none;fill-rule:nonzero;fill:rgb(100%,100%,100%);fill-opacity:1;" d="M 57.519531 218.984375 L 71.519531 218.984375 L 71.519531 232.984375 L 57.519531 232.984375 Z M 57.519531 218.984375 "/>
<g style="fill:rgb(50%,30%,10%);fill-opacity:1;">
  <use xlink:href="#glyph0-1" x="57.519531" y="230.123047"/>
  <use xlink:href="#glyph0-2" x="65.751953" y="230.123047"/>
</g>
<path style="fill:none;stroke-width:1.2;stroke-linecap:butt;stroke-linejoin:miter;stroke:rgb(0%,0%,0%);stroke-opacity:1;stroke-miterlimit:10;" d="M 95.035156 209.460938 L 92.484375 180.835938 "/>
<path style="fill:none;stroke-width:1.2;stroke-linecap:butt;stroke-linejoin:miter;stroke:rgb(0%,0%,0%);stroke-opacity:1;stroke-miterlimit:10;" d="M 101.515625 206 L 99.476562 183.097656 "/>
<path style="fill:none;stroke-width:1.2;stroke-linecap:butt;stroke-linejoin:miter;stroke:rgb(0%,0%,0%);stroke-opacity:1;stroke-miterlimit:10;" d="M 121.101562 221.566406 L 95.035156 209.460938 "/>
<path style="fill:none;stroke-width:1.2;stroke-linecap:butt;stroke-linejoin:miter;stroke:rgb(0%,0%,0%);stroke-opacity:1;stroke-miterlimit:10;" d="M 92.484375 180.835938 L 116 164.3125 "/>
<path style="fill:none;stroke-width:1.2;stroke-linecap:butt;stroke-linejoin:miter;stroke:rgb(0%,0%,0%);stroke-opacity:1;stroke-miterlimit:10;" d="M 116 164.3125 L 142.066406 176.417969 "/>
<path style="fill:none;stroke-width:1.2;stroke-linecap:butt;stroke-linejoin:miter;stroke:rgb(0%,0%,0%);stroke-opacity:1;stroke-miterlimit:10;" d="M 121.457031 159.390625 L 142.308594 169.074219 "/>
<path style="fill:none;stroke-width:1.2;stroke-linecap:butt;stroke-linejoin:miter;stroke:rgb(0%,0%,0%);stroke-opacity:1;stroke-miterlimit:10;" d="M 113.449219 135.6875 L 116 164.3125 "/>
<path style="fill:none;stroke-width:1.2;stroke-linecap:butt;stroke-linejoin:miter;stroke:rgb(0%,0%,0%);stroke-opacity:1;stroke-miterlimit:10;" d="M 142.066406 176.417969 L 144.621094 205.042969 "/>
<path style="fill:none;stroke-width:1.2;stroke-linecap:butt;stroke-linejoin:miter;stroke:rgb(0%,0%,0%);stroke-opacity:1;stroke-miterlimit:10;" d="M 142.066406 176.417969 L 165.585938 159.894531 "/>
<path style="fill:none;stroke-width:1.2;stroke-linecap:butt;stroke-linejoin:miter;stroke:rgb(0%,0%,0%);stroke-opacity:1;stroke-miterlimit:10;" d="M 144.621094 205.042969 L 121.101562 221.566406 "/>
<path style="fill:none;stroke-width:1.2;stroke-linecap:butt;stroke-linejoin:miter;stroke:rgb(0%,0%,0%);stroke-opacity:1;stroke-miterlimit:10;" d="M 138.378906 201.164062 L 119.566406 214.382812 "/>
<path style="fill:none;stroke-width:1.2;stroke-linecap:butt;stroke-linejoin:miter;stroke:rgb(0%,0%,0%);stroke-opacity:1;stroke-miterlimit:10;" d="M 164.160156 162.960938 L 177.195312 169.015625 "/>
<path style="fill:none;stroke-width:1.2;stroke-linecap:butt;stroke-linejoin:miter;stroke:rgb(100%,0%,0%);stroke-opacity:1;stroke-miterlimit:10;" d="M 177.195312 169.015625 L 190.226562 175.066406 "/>
<path style="fill:none;stroke-width:1.2;stroke-linecap:butt;stroke-linejoin:miter;stroke:rgb(0%,0%,0%);stroke-opacity:1;stroke-miterlimit:10;" d="M 167.007812 156.828125 L 180.042969 162.878906 "/>
<path style="fill:none;stroke-width:1.2;stroke-linecap:butt;stroke-linejoin:miter;stroke:rgb(100%,0%,0%);stroke-opacity:1;stroke-miterlimit:10;" d="M 180.042969 162.878906 L 193.074219 168.933594 "/>
<path style="fill:none;stroke-width:1.2;stroke-linecap:butt;stroke-linejoin:miter;stroke:rgb(0%,0%,0%);stroke-opacity:1;stroke-miterlimit:10;" d="M 165.585938 159.894531 L 164.308594 145.582031 "/>
<path style="fill:none;stroke-width:1.2;stroke-linecap:butt;stroke-linejoin:miter;stroke:rgb(0%,0%,100%);stroke-opacity:1;stroke-miterlimit:10;" d="M 164.308594 145.582031 L 163.035156 131.269531 "/>
<path style=" stroke:none;fill-rule:nonzero;fill:rgb(100%,100%,100%);fill-opacity:1;" d="M 186.652344 165 L 196.652344 165 L 196.652344 179 L 186.652344 179 Z M 186.652344 165 "/>
<g style="fill:rgb(100%,0%,0%);fill-opacity:1;">
  <use xlink:href="#glyph0-3" x="186.652344" y="176.138672"/>
</g>
<path style="fill:none;stroke-width:1.2;stroke-linecap:butt;stroke-linejoin:miter;stroke:rgb(0%,0%,100%);stroke-opacity:1;stroke-miterlimit:10;" d="M 163.035156 131.269531 L 174.792969 123.007812 "/>
<path style="fill:none;stroke-width:1.2;stroke-linecap:butt;stroke-linejoin:miter;stroke:rgb(0%,0%,0%);stroke-opacity:1;stroke-miterlimit:10;" d="M 174.792969 123.007812 L 186.550781 114.746094 "/>
<path style="fill:none;stroke-width:1.2;stroke-linecap:butt;stroke-linejoin:miter;stroke:rgb(0%,0%,100%);stroke-opacity:1;stroke-miterlimit:10;" d="M 163.035156 131.269531 L 150 125.214844 "/>
<path style="fill:none;stroke-width:1.2;stroke-linecap:butt;stroke-linejoin:miter;stroke:rgb(0%,0%,0%);stroke-opacity:1;stroke-miterlimit:10;" d="M 150 125.214844 L 136.964844 119.164062 "/>
<path style=" stroke:none;fill-rule:nonzero;fill:rgb(100%,100%,100%);fill-opacity:1;" d="M 159.035156 124.269531 L 168.035156 124.269531 L 168.035156 138.269531 L 159.035156 138.269531 Z M 159.035156 124.269531 "/>
<g style="fill:rgb(0%,0%,100%);fill-opacity:1;">
  <use xlink:href="#glyph0-4" x="159.035156" y="135.408203"/>
</g>
<path style="fill:none;stroke-width:1.2;stroke-linecap:butt;stroke-linejoin:miter;stroke:rgb(0%,0%,0%);stroke-opacity:1;stroke-miterlimit:10;" d="M 186.550781 114.746094 L 212.617188 126.851562 "/>
<path style="fill:none;stroke-width:1.2;stroke-linecap:butt;stroke-linejoin:miter;stroke:rgb(0%,0%,0%);stroke-opacity:1;stroke-miterlimit:10;" d="M 212.617188 126.851562 L 215.167969 155.476562 "/>
<path style="fill:none;stroke-width:1.2;stroke-linecap:butt;stroke-linejoin:miter;stroke:rgb(0%,0%,0%);stroke-opacity:1;stroke-miterlimit:10;" d="M 236.132812 110.328125 L 212.617188 126.851562 "/>
<path style="fill:none;stroke-width:1.2;stroke-linecap:butt;stroke-linejoin:miter;stroke:rgb(0%,0%,0%);stroke-opacity:1;stroke-miterlimit:10;" d="M 215.167969 155.476562 L 241.234375 167.582031 "/>
<path style="fill:none;stroke-width:1.2;stroke-linecap:butt;stroke-linejoin:miter;stroke:rgb(0%,0%,0%);stroke-opacity:1;stroke-miterlimit:10;" d="M 241.234375 167.582031 L 264.75 151.058594 "/>
<path style="fill:none;stroke-width:1.2;stroke-linecap:butt;stroke-linejoin:miter;stroke:rgb(0%,0%,0%);stroke-opacity:1;stroke-miterlimit:10;" d="M 264.75 151.058594 L 262.199219 122.433594 "/>
<path style="fill:none;stroke-width:1.2;stroke-linecap:butt;stroke-linejoin:miter;stroke:rgb(0%,0%,0%);stroke-opacity:1;stroke-miterlimit:10;" d="M 262.199219 122.433594 L 236.132812 110.328125 "/>
<path style="fill:none;stroke-width:1.2;stroke-linecap:butt;stroke-linejoin:miter;stroke:rgb(0%,0%,0%);stroke-opacity:1;stroke-miterlimit:10;" d="M 136.964844 119.164062 L 134.414062 90.539062 "/>
<path style="fill:none;stroke-width:1.2;stroke-linecap:butt;stroke-linejoin:miter;stroke:rgb(0%,0%,0%);stroke-opacity:1;stroke-miterlimit:10;" d="M 136.964844 119.164062 L 113.449219 135.6875 "/>
<path style="fill:none;stroke-width:1.2;stroke-linecap:butt;stroke-linejoin:miter;stroke:rgb(0%,0%,0%);stroke-opacity:1;stroke-miterlimit:10;" d="M 138.503906 126.351562 L 119.691406 139.566406 "/>
<path style="fill:none;stroke-width:1.2;stroke-linecap:butt;stroke-linejoin:miter;stroke:rgb(0%,0%,0%);stroke-opacity:1;stroke-miterlimit:10;" d="M 134.414062 90.539062 L 146.171875 82.277344 "/>
<path style="fill:none;stroke-width:1.2;stroke-linecap:butt;stroke-linejoin:miter;stroke:rgb(100%,0%,0%);stroke-opacity:1;stroke-miterlimit:10;" d="M 146.171875 82.277344 L 157.933594 74.015625 "/>
<path style=" stroke:none;fill-rule:nonzero;fill:rgb(100%,100%,100%);fill-opacity:1;" d="M 148.933594 67.015625 L 167.933594 67.015625 L 167.933594 81.015625 L 148.933594 81.015625 Z M 148.933594 67.015625 "/>
<g style="fill:rgb(100%,0%,0%);fill-opacity:1;">
  <use xlink:href="#glyph0-3" x="148.933594" y="78.154297"/>
  <use xlink:href="#glyph0-5" x="158.378906" y="78.154297"/>
</g>
<path style="fill:none;stroke-width:1.2;stroke-linecap:butt;stroke-linejoin:miter;stroke:rgb(0%,0%,0%);stroke-opacity:1;stroke-miterlimit:10;" d="M 113.449219 135.6875 L 87.382812 123.582031 "/>
<path style="fill:none;stroke-width:1.2;stroke-linecap:butt;stroke-linejoin:miter;stroke:rgb(0%,0%,0%);stroke-opacity:1;stroke-miterlimit:10;" d="M 87.382812 123.582031 L 84.832031 94.957031 "/>
<path style="fill:none;stroke-width:1.2;stroke-linecap:butt;stroke-linejoin:miter;stroke:rgb(0%,0%,0%);stroke-opacity:1;stroke-miterlimit:10;" d="M 80.394531 121.320312 L 78.351562 98.417969 "/>
<path style="fill:none;stroke-width:1.2;stroke-linecap:butt;stroke-linejoin:miter;stroke:rgb(0%,0%,0%);stroke-opacity:1;stroke-miterlimit:10;" d="M 63.867188 140.105469 L 87.382812 123.582031 "/>
<path style="fill:none;stroke-width:1.2;stroke-linecap:butt;stroke-linejoin:miter;stroke:rgb(0%,0%,0%);stroke-opacity:1;stroke-miterlimit:10;" d="M 84.832031 94.957031 L 58.765625 82.851562 "/>
<path style="fill:none;stroke-width:1.2;stroke-linecap:butt;stroke-linejoin:miter;stroke:rgb(0%,0%,0%);stroke-opacity:1;stroke-miterlimit:10;" d="M 58.765625 82.851562 L 35.25 99.375 "/>
<path style="fill:none;stroke-width:1.2;stroke-linecap:butt;stroke-linejoin:miter;stroke:rgb(0%,0%,0%);stroke-opacity:1;stroke-miterlimit:10;" d="M 60.300781 90.035156 L 41.488281 103.253906 "/>
<path style="fill:none;stroke-width:1.2;stroke-linecap:butt;stroke-linejoin:miter;stroke:rgb(0%,0%,0%);stroke-opacity:1;stroke-miterlimit:10;" d="M 35.25 99.375 L 37.800781 128 "/>
<path style="fill:none;stroke-width:1.2;stroke-linecap:butt;stroke-linejoin:miter;stroke:rgb(0%,0%,0%);stroke-opacity:1;stroke-miterlimit:10;" d="M 37.800781 128 L 63.867188 140.105469 "/>
<path style="fill:none;stroke-width:1.2;stroke-linecap:butt;stroke-linejoin:miter;stroke:rgb(0%,0%,0%);stroke-opacity:1;stroke-miterlimit:10;" d="M 43.253906 123.078125 L 64.109375 132.761719 "/>
</g>
</svg>

<svg xmlns="http://www.w3.org/2000/svg" xmlns:xlink="http://www.w3.org/1999/xlink" width="300pt" height="300pt" viewBox="0 0 300 300"><defs><symbol overflow="visible"><path d="M.594 2.125V-8.47h6V2.126zm.672-.672h4.671V-7.78h-4.67zm0 0"/></symbol><symbol overflow="visible" id="a"><path d="M2.36-4.172V-.97h1.906c.632 0 1.1-.128 1.406-.39.312-.27.47-.675.47-1.218 0-.55-.158-.953-.47-1.203-.305-.26-.774-.392-1.406-.392zm0-3.61v2.64h1.75c.58 0 1.015-.108 1.296-.327.282-.218.422-.546.422-.983 0-.445-.14-.78-.422-1-.28-.22-.715-.328-1.297-.328zM1.17-8.75h3.03c.907 0 1.6.188 2.08.563.488.374.734.906.734 1.593 0 .543-.125.977-.375 1.297-.25.313-.617.508-1.093.578.582.126 1.035.388 1.36.782.32.4.484.89.484 1.485 0 .78-.265 1.387-.796 1.812C6.062-.21 5.3 0 4.312 0h-3.14zm0 0"/></symbol><symbol overflow="visible" id="b"><path d="M4.938-5.563c-.125-.062-.262-.11-.407-.14-.135-.04-.292-.063-.468-.063-.605 0-1.074.2-1.406.594-.324.4-.484.97-.484 1.72V0H1.094v-6.563h1.078v1.016c.226-.394.523-.687.89-.875.364-.195.805-.297 1.33-.297.07 0 .147.01.233.017.094.012.19.027.297.047zm0 0"/></symbol><symbol overflow="visible" id="c"><path d="M4.734-7.953c-.867 0-1.554.324-2.062.97-.5.635-.75 1.51-.75 2.624 0 1.094.25 1.965.75 2.61.508.637 1.195.953 2.062.953.852 0 1.532-.316 2.032-.953.507-.645.765-1.516.765-2.61 0-1.113-.257-1.988-.764-2.624-.5-.645-1.18-.97-2.032-.97zm0-.953c1.22 0 2.192.414 2.922 1.234.74.824 1.11 1.93 1.11 3.313 0 1.376-.37 2.477-1.11 3.298C6.926-.24 5.953.17 4.734.17c-1.23 0-2.214-.41-2.953-1.234C1.04-1.882.673-2.984.673-4.36c0-1.382.367-2.488 1.11-3.312.738-.82 1.722-1.234 2.952-1.234zm0 0"/></symbol><symbol overflow="visible" id="d"><path d="M1.172-8.75h1.594l3.89 7.313V-8.75h1.14V0H6.204L2.328-7.313V0H1.172zm0 0"/></symbol><symbol overflow="visible" id="e"><path d="M1.172-8.75H2.36v3.594h4.296V-8.75h1.188V0H6.656v-4.172H2.36V0H1.17zm0 0"/></symbol></defs><g><path fill="#fff" d="M0 0h300v300H0z"/><path d="M71.52 225.984l11.757-8.26" stroke-width="1.2" stroke="#7f4d1a" stroke-miterlimit="10" fill="none"/><path d="M83.277 217.723l11.758-8.262" stroke-width="1.2" stroke="#000" stroke-miterlimit="10" fill="none"/><path d="M57.52 218.984h14v14h-14zm0 0" fill="#fff"/><g fill="#7f4d1a"><use xlink:href="#a" x="57.52" y="230.123"/><use xlink:href="#b" x="65.752" y="230.123"/></g><path d="M95.035 209.46l-2.55-28.624M101.516 206l-2.04-22.902M121.102 221.566L95.035 209.46M92.484 180.836L116 164.312M116 164.313l26.066 12.105M121.457 159.39l20.852 9.684M113.45 135.688l2.55 28.625M142.066 176.418l2.555 28.625M142.066 176.418l23.52-16.523M144.62 205.043l-23.518 16.523M138.38 201.164l-18.814 13.22M164.16 162.96l13.035 6.056" stroke-width="1.2" stroke="#000" stroke-miterlimit="10" fill="none"/><path d="M177.195 169.016l13.032 6.05" stroke-width="1.2" stroke="#f00" stroke-miterlimit="10" fill="none"/><path d="M167.008 156.828l13.035 6.05" stroke-width="1.2" stroke="#000" stroke-miterlimit="10" fill="none"/><path d="M180.043 162.88l13.03 6.054" stroke-width="1.2" stroke="#f00" stroke-miterlimit="10" fill="none"/><path d="M165.586 159.895l-1.277-14.313" stroke-width="1.2" stroke="#000" stroke-miterlimit="10" fill="none"/><path d="M164.31 145.582l-1.275-14.312" stroke-width="1.2" stroke="#00f" stroke-miterlimit="10" fill="none"/><path d="M186.652 165h10v14h-10zm0 0" fill="#fff"/><use xlink:href="#c" x="186.652" y="176.139" fill="#f00"/><path d="M163.035 131.27l11.758-8.262" stroke-width="1.2" stroke="#00f" stroke-miterlimit="10" fill="none"/><path d="M174.793 123.008l11.758-8.262" stroke-width="1.2" stroke="#000" stroke-miterlimit="10" fill="none"/><path d="M163.035 131.27L150 125.215" stroke-width="1.2" stroke="#00f" stroke-miterlimit="10" fill="none"/><path d="M150 125.215l-13.035-6.05" stroke-width="1.2" stroke="#000" stroke-miterlimit="10" fill="none"/><path d="M159.035 124.27h9v14h-9zm0 0" fill="#fff"/><use xlink:href="#d" x="159.035" y="135.408" fill="#00f"/><path d="M186.55 114.746l26.067 12.106M212.617 126.852l2.55 28.625M236.133 110.328l-23.516 16.524M215.168 155.477l26.066 12.105M241.234 167.582l23.516-16.523M264.75 151.06l-2.55-28.626M262.2 122.434l-26.067-12.106M136.965 119.164l-2.55-28.625M136.965 119.164l-23.516 16.523M138.504 126.352l-18.813 13.214M134.414 90.54l11.758-8.263" stroke-width="1.2" stroke="#000" stroke-miterlimit="10" fill="none"/><path d="M146.172 82.277l11.762-8.26" stroke-width="1.2" stroke="#f00" stroke-miterlimit="10" fill="none"/><path d="M148.934 67.016h19v14h-19zm0 0" fill="#fff"/><g fill="#f00"><use xlink:href="#c" x="148.934" y="78.154"/><use xlink:href="#e" x="158.379" y="78.154"/></g><path d="M113.45 135.688l-26.067-12.106M87.383 123.582l-2.55-28.625M80.395 121.32l-2.043-22.902M63.867 140.105l23.516-16.523M84.832 94.957L58.766 82.852M58.766 82.852L35.25 99.375M60.3 90.035l-18.812 13.22M35.25 99.375L37.8 128M37.8 128l26.067 12.105M43.254 123.078l20.855 9.684" stroke-width="1.2" stroke="#000" stroke-miterlimit="10" fill="none"/></g></svg>
